X:4966
T:Fairy Dance
T:Largo's Fairy Dance
C:Niel Gow, Scotland (1727-1807)
R:reel
H:See also #649, #65
Z:id:hn-reel-735
M:C|
K:D
|:(3faf dg (3faf dg|(3faf dB cdeg|(3faf df gfed|1 cABc dfag:|2 cABc defg||
|:aAdf bagf|gece agfe|fdBd gfed|1 cABc defg:|2 cAGE D3g||
